Waterleaf/32x32/apps/samba.svg

<svg xmlns="http://www.w3.org/2000/svg" width="32" height="32" version="1.1" viewBox="0 0 32 32">
 <path style="opacity:0.2" d="M 16,3 A 14,14 0 0 0 2,17 14,14 0 0 0 16,31 14,14 0 0 0 30,17 14,14 0 0 0 16,3 Z"/>
 <path style="fill:#48aeff" d="M 16,2 A 14,14 0 0 0 2,16 14,14 0 0 0 16,30 14,14 0 0 0 30,16 14,14 0 0 0 16,2 Z"/>
 <path style="opacity:0.2" d="m 11.546875,10 a 0.99796898,0.74272755 0 0 0 -0.09961,0.002 0.99796898,0.74272755 0 0 0 -0.810547,0.369141 L 7.1347656,14.884766 A 0.99796898,0.74272755 0 0 0 7.9980469,16 H 10 v 6.554688 C 10,23.35491 10.64509,24 11.445312,24 h 0.109376 C 12.35491,24 13,23.35491 13,22.554688 V 16 h 2.001953 a 0.99796898,0.74272755 0 0 0 0.863281,-1.115234 L 12.363281,10.371094 A 0.99796898,0.74272755 0 0 0 11.546875,10 Z m 8.898437,0 C 19.64509,10 19,10.64509 19,11.445312 V 18 h -2.001953 a 0.99796898,0.74272755 0 0 0 -0.863281,1.115234 l 3.501953,4.513672 a 0.99796898,0.74272755 0 0 0 0.810547,0.369141 0.99796898,0.74272755 0 0 0 0.916015,-0.369141 l 3.501953,-4.513672 A 0.99796898,0.74272755 0 0 0 24.001953,18 H 22 V 11.445312 C 22,10.64509 21.35491,10 20.554688,10 Z"/>
 <g>
  <rect style="fill:#ffffff" width="3" height="13" x="10" y="10" ry="1.444"/>
  <path style="fill:#ffffff" d="M 11.44642,9.0010645 A 0.99796898,0.74272755 0 0 0 10.635886,9.371383 L 7.1338342,13.885739 A 0.99796898,0.74272755 0 0 0 7.9979474,15 h 7.0041046 a 0.99796898,0.74272755 0 0 0 0.864114,-1.114261 L 12.364114,9.371383 A 0.99796898,0.74272755 0 0 0 11.44642,9.0010645 Z"/>
 </g>
 <g transform="matrix(1,0,0,-1,9,32)">
  <rect style="fill:#ffffff" width="3" height="13" x="10" y="10" ry="1.444"/>
  <path style="fill:#ffffff" d="M 11.44642,9.0010645 A 0.99796898,0.74272755 0 0 0 10.635886,9.371383 L 7.1338342,13.885739 A 0.99796898,0.74272755 0 0 0 7.9979474,15 h 7.0041046 a 0.99796898,0.74272755 0 0 0 0.864114,-1.114261 L 12.364114,9.371383 A 0.99796898,0.74272755 0 0 0 11.44642,9.0010645 Z"/>
 </g>
 <path style="fill:#ffffff;opacity:0.2" d="M 16 2 A 14 14 0 0 0 2 16 A 14 14 0 0 0 2.0214844 16.414062 A 14 14 0 0 1 16 3 A 14 14 0 0 1 29.978516 16.585938 A 14 14 0 0 0 30 16 A 14 14 0 0 0 16 2 z"/>
</svg>

<svg width="32" height="32" version="1.1" viewBox="0 0 32 32" xmlns="http://www.w3.org/2000/svg">
 <path d="m16 2a14 14 0 0 0-14 14 14 14 0 0 0 14 14 14 14 0 0 0 14-14 14 14 0 0 0-14-14z" fill="#48aeff"/>
 <g fill="#fff">
  <rect x="10" y="10" width="3" height="13" ry="1.444"/>
  <path d="m11.446 9.0011a0.99797 0.74273 0 0 0-0.81053 0.37032l-3.5021 4.5144a0.99797 0.74273 0 0 0 0.86411 1.1143h7.0041a0.99797 0.74273 0 0 0 0.86411-1.1143l-3.5021-4.5144a0.99797 0.74273 0 0 0-0.91769-0.37032z"/>
 </g>
 <g transform="matrix(1,0,0,-1,9,32)" fill="#fff">
  <rect x="10" y="10" width="3" height="13" ry="1.444"/>
  <path d="m11.446 9.0011a0.99797 0.74273 0 0 0-0.81053 0.37032l-3.5021 4.5144a0.99797 0.74273 0 0 0 0.86411 1.1143h7.0041a0.99797 0.74273 0 0 0 0.86411-1.1143l-3.5021-4.5144a0.99797 0.74273 0 0 0-0.91769-0.37032z"/>
 </g>
</svg>
